Icons/Line/si_Money.svg

<svg width="24" height="24" viewBox="0 0 24 24" fill="none" xmlns="http://www.w3.org/2000/svg">
<path d="M19.2 9H2.8C2.35817 9 2 9.35817 2 9.8V18.2C2 18.6418 2.35817 19 2.8 19H19.2C19.6418 19 20 18.6418 20 18.2V9.8C20 9.35817 19.6418 9 19.2 9Z" stroke="black" stroke-width="1.5" stroke-miterlimit="10"/>
<path d="M11 15C11.5523 15 12 14.5523 12 14C12 13.4477 11.5523 13 11 13C10.4477 13 10 13.4477 10 14C10 14.5523 10.4477 15 11 15Z" stroke="black" stroke-width="1.5" stroke-miterlimit="10"/>
<path d="M5 9V6.8C5 6.36 5.36 6 5.8 6H22.2C22.64 6 23 6.36 23 6.8V15.2C23 15.64 22.64 16 22.2 16H20" stroke="black" stroke-width="1.5" stroke-miterlimit="10"/>
</svg>

<svg width="24" height="24" fill="none" xmlns="http://www.w3.org/2000/svg"><path d="M19.2 9H2.8a.8.8 0 0 0-.8.8v8.4a.8.8 0 0 0 .8.8h16.4a.8.8 0 0 0 .8-.8V9.8a.8.8 0 0 0-.8-.8Z" stroke="#000" stroke-width="1.5" stroke-miterlimit="10"/><path d="M11 15a1 1 0 1 0 0-2 1 1 0 0 0 0 2ZM5 9V6.8c0-.44.36-.8.8-.8h16.4c.44 0 .8.36.8.8v8.4c0 .44-.36.8-.8.8H20" stroke="#000" stroke-width="1.5" stroke-miterlimit="10"/></svg>
